;FLAVOR:Marlin
;TIME:3005
;Filament used: 9.44145m
;Layer height: 0.6
;MINX:-35.663
;MINY:-18.596
;MINZ:0.3
;MAXX:35.663
;MAXY:17.763
;MAXZ:99.9
;Generated with Cura_SteamEngine 4.5.0
M140 S60
M105
M190 S60
M104 S200
M105
M109 S200
M82 ;absolute extrusion mode
G28 ;Home
G1 Z15.0 F6000 ;Move the platform down 15mm
;Prime the extruder
G92 E0
G1 F200 E3
G92 E0
G92 E0
G92 E0
G1 F1500 E-6.5
;LAYER_COUNT:167
;LAYER:0
M107
G0 F3600 X1.042 Y17.712 Z0.3
;TYPE:SKIRT
G1 F1500 E0
G1 F1800 X0.319 Y17.763 E0.03616
G1 X-1.015 Y17.719 E0.10275
G1 X-9.147 Y16.779 E0.51116
G1 X-9.926 Y16.649 E0.55056
G1 X-10.687 Y16.441 E0.58992
G1 X-17.373 Y13.781 E0.94891
G1 X-17.94 Y13.571 E0.97908
G1 X-18.649 Y13.225 E1.01844
G1 X-19.32 Y12.808 E1.05785
G1 X-20.076 Y12.211 E1.10591
G1 X-23.542 Y9.109 E1.33797
G1 X-24.351 Y8.267 E1.39623
G1 X-24.928 Y7.507 E1.44383
G1 X-25.333 Y6.829 E1.48323
G1 X-25.668 Y6.114 E1.52263
G1 X-27.02 Y2.155 E1.73134
G1 X-27.234 Y1.395 E1.77073
G1 X-27.37 Y0.617 E1.81014
G1 X-27.427 Y-.171 E1.84955
G1 X-27.404 Y-.96 E1.88893
G1 X-27.302 Y-1.743 E1.92833
G1 X-27.049 Y-2.743 E1.97979
G1 X-25.866 Y-6.394 E2.17126
G1 X-25.585 Y-7.132 E2.21066
G1 X-25.231 Y-7.838 E2.25006
G1 X-24.807 Y-8.504 E2.28945
G1 X-24.318 Y-9.124 E2.32885
G1 X-23.714 Y-9.742 E2.37196
G1 X-20.217 Y-12.945 E2.60855
G1 X-19.609 Y-13.448 E2.64791
G1 X-18.952 Y-13.887 E2.68734
G1 X-18.255 Y-14.258 E2.72673
G1 X-11.216 Y-17.089 E3.10524
G1 X-10.469 Y-17.345 E3.14464
G1 X-9.7 Y-17.524 E3.18403
G1 X-1.161 Y-18.539 E3.61304
G1 X-.48 Y-18.589 E3.64711
G1 X-.239 Y-18.596 E3.65914
G1 X0.882 Y-18.547 E3.71512
G1 X9.027 Y-17.606 E4.12418
G1 X9.806 Y-17.476 E4.16358
G1 X10.568 Y-17.268 E4.20299
G1 X17.237 Y-14.614 E4.56108
G1 X17.86 Y-14.384 E4.59421
G1 X18.569 Y-14.037 E4.6336
G1 X19.24 Y-13.62 E4.67301
G1 X20.015 Y-13.006 E4.72234
G1 X23.455 Y-9.904 E4.95343
G1 X24.013 Y-9.346 E4.9928
G1 X24.402 Y-8.884 E5.02293
G1 X24.865 Y-8.245 E5.0623
G1 X25.262 Y-7.562 E5.10172
G1 X25.716 Y-6.488 E5.15989
G1 X26.9 Y-2.981 E5.34456
G1 X27.115 Y-2.221 E5.38396
G1 X27.251 Y-1.443 E5.42336
G1 X27.308 Y-.656 E5.46273
G1 X27.285 Y0.134 E5.50216
G1 X27.183 Y0.917 E5.54155
G1 X26.93 Y1.918 E5.59307
G1 X25.747 Y5.57 E5.78459
G1 X25.466 Y6.308 E5.82398
G1 X25.112 Y7.013 E5.86334
G1 X24.688 Y7.68 E5.90277
G1 X24.199 Y8.3 E5.94217
G1 X23.595 Y8.918 E5.98528
G1 X20.098 Y12.121 E6.22187
G1 X19.49 Y12.624 E6.26124
G1 X18.833 Y13.063 E6.30066
G1 X18.136 Y13.434 E6.34005
G1 X11.094 Y16.263 E6.71867
G1 X10.347 Y16.519 E6.75806
G1 X9.578 Y16.698 E6.79745
G1 X1.042 Y17.712 E7.22631
G0 F3600 X0.995 Y17.315
G1 F1800 X0.31 Y17.363 E7.26057
G1 X-.969 Y17.322 E7.32441
G1 X-9.101 Y16.382 E7.73282
G1 X-9.859 Y16.254 E7.77117
G1 X-10.6 Y16.048 E7.80954
G1 X-17.233 Y13.406 E8.16575
G1 X-17.801 Y13.196 E8.19596
G1 X-18.49 Y12.855 E8.23432
G1 X-19.141 Y12.445 E8.2727
G1 X-19.809 Y11.913 E8.3153
G1 X-23.275 Y8.811 E8.54736
G1 X-24.043 Y8.012 E8.60265
G1 X-24.607 Y7.268 E8.64923
G1 X-24.999 Y6.606 E8.68761
G1 X-25.32 Y5.907 E8.72599
G1 X-26.641 Y2.027 E8.93048
G1 X-26.848 Y1.286 E8.96886
G1 X-26.978 Y0.528 E9.00723
G1 X-27.028 Y-.239 E9.04557
G1 X-26.999 Y-1.008 E9.08397
G1 X-26.889 Y-1.769 E9.12233
G1 X-26.669 Y-2.62 E9.16618
G1 X-25.486 Y-6.271 E9.35765
G1 X-25.211 Y-6.989 E9.39601
G1 X-24.863 Y-7.675 E9.43439
G1 X-24.446 Y-8.322 E9.47279
G1 X-23.964 Y-8.921 E9.51115
G1 X-23.444 Y-9.447 E9.54805
G1 X-19.947 Y-12.65 E9.78464
G1 X-19.354 Y-13.139 E9.82298
G1 X-18.713 Y-13.564 E9.86135
G1 X-17.699 Y-14.063 E9.91774
G1 X-11.067 Y-16.718 E10.27414
G1 X-10.339 Y-16.966 E10.31251
G1 X-9.59 Y-17.138 E10.35085
G1 X-1.114 Y-18.142 E10.77667
G1 X-.469 Y-18.189 E10.80894
G1 X-.228 Y-18.196 E10.82097
G1 X0.836 Y-18.15 E10.8741
G1 X8.981 Y-17.209 E11.28316
G1 X9.74 Y-17.081 E11.32156
G1 X10.481 Y-16.875 E11.35993
G1 X17.027 Y-14.266 E11.7115
G1 X17.721 Y-14.008 E11.74843
G1 X18.41 Y-13.667 E11.78679
G1 X19.061 Y-13.257 E11.82517
G1 X19.747 Y-12.709 E11.86898
G1 X23.187 Y-9.607 E12.10007
G1 X23.73 Y-9.063 E12.13842
G1 X24.09 Y-8.634 E12.16636
G1 X24.541 Y-8.01 E12.20477
G1 X24.924 Y-7.343 E12.24314
G1 X25.337 Y-6.36 E12.29634
G1 X26.521 Y-2.853 E12.481
G1 X26.729 Y-2.113 E12.51935
G1 X26.859 Y-1.354 E12.55777
G1 X26.909 Y-.587 E12.59612
G1 X26.88 Y0.182 E12.63451
G1 X26.771 Y0.943 E12.67286
G1 X26.55 Y1.794 E12.71673
G1 X25.367 Y5.446 E12.90825
G1 X25.092 Y6.165 E12.94665
G1 X24.744 Y6.851 E12.98503
G1 X24.327 Y7.497 E13.02339
G1 X23.845 Y8.096 E13.06175
G1 X23.325 Y8.623 E13.09869
G1 X19.828 Y11.826 E13.33527
G1 X19.235 Y12.315 E13.37362
G1 X18.594 Y12.74 E13.41199
G1 X17.578 Y13.24 E13.46848
G1 X10.946 Y15.892 E13.82483
G1 X10.218 Y16.14 E13.8632
G1 X9.468 Y16.311 E13.90158
G1 X0.995 Y17.315 E14.32725
G0 F3600 X0.949 Y16.918
G1 F1800 X0.3 Y16.963 E14.35971
G1 X-.923 Y16.925 E14.42076
G1 X-9.055 Y15.985 E14.82916
G1 X-9.792 Y15.859 E14.86647
G1 X-10.853 Y15.53 E14.92189
G1 X-17.106 Y13.026 E15.25793
G1 X-17.661 Y12.82 E15.28747
G1 X-18.331 Y12.486 E15.32482
G1 X-18.96 Y12.082 E15.36211
G1 X-19.542 Y11.615 E15.39934
G1 X-23.008 Y8.513 E15.6314
G1 X-23.735 Y7.757 E15.68373
G1 X-24.285 Y7.029 E15.72925
G1 X-24.664 Y6.384 E15.76657
G1 X-25.078 Y5.408 E15.81946
G1 X-26.262 Y1.899 E16.00423
G1 X-26.463 Y1.178 E16.04157
G1 X-26.585 Y0.44 E16.07889
G1 X-26.629 Y-.306 E16.11617
G1 X-26.592 Y-1.053 E16.15348
G1 X-26.476 Y-1.792 E16.1908
G1 X-26.288 Y-2.497 E16.22721
G1 X-25.105 Y-6.148 E16.41868
G1 X-24.837 Y-6.846 E16.45598
G1 X-24.496 Y-7.512 E16.49331
G1 X-24.085 Y-8.137 E16.53063
G1 X-23.61 Y-8.715 E16.56795
G1 X-23.174 Y-9.152 E16.59875
G1 X-19.677 Y-12.355 E16.83534
G1 X-19.099 Y-12.83 E16.87266
G1 X-18.474 Y-13.241 E16.90998
G1 X-17.551 Y-13.692 E16.96123
G1 X-10.919 Y-16.347 E17.31764
G1 X-10.21 Y-16.587 E17.35498
G1 X-9.131 Y-16.801 E17.40986
G1 X-1.068 Y-17.745 E17.81487
G1 X-.457 Y-17.789 E17.84543
G1 X-.216 Y-17.796 E17.85746
G1 X0.79 Y-17.753 E17.9077
G1 X8.935 Y-16.812 E18.31676
G1 X9.673 Y-16.686 E18.35411
G1 X10.735 Y-16.356 E18.40959
G1 X16.88 Y-13.894 E18.73986
G1 X17.581 Y-13.633 E18.77717
G1 X18.251 Y-13.298 E18.81455
G1 X18.88 Y-12.894 E18.85184
G1 X19.479 Y-12.412 E18.8902
G1 X22.919 Y-9.31 E19.12129
G1 X23.684 Y-8.501 E19.17684
G1 X24.216 Y-7.776 E19.22171
G1 X24.586 Y-7.126 E19.25902
G1 X24.958 Y-6.232 E19.30733
G1 X26.142 Y-2.725 E19.492
G1 X26.343 Y-2.005 E19.52929
G1 X26.466 Y-1.267 E19.56662
G1 X26.51 Y-.52 E19.60395
G1 X26.474 Y0.227 E19.64126
G1 X26.358 Y0.966 E19.67858
G1 X26.169 Y1.671 E19.715
G1 X24.986 Y5.323 E19.90652
G1 X24.718 Y6.021 E19.94382
G1 X24.377 Y6.687 E19.98115
G1 X23.967 Y7.313 E20.01848
G1 X23.492 Y7.891 E20.05581
G1 X23.055 Y8.328 E20.08664
G1 X19.558 Y11.531 E20.32323
G1 X18.98 Y12.006 E20.36055
G1 X18.355 Y12.417 E20.39787
G1 X17.429 Y12.869 E20.44928
G1 X10.797 Y15.521 E20.80563
G1 X10.089 Y15.761 E20.84292
G1 X9.012 Y15.974 E20.89769
G1 X0.949 Y16.918 E21.30271
G0 F3600 X0.902 Y16.52
G1 F1800 X0.291 Y16.563 E21.33326
G1 X-.877 Y16.527 E21.39156
G1 X-9.009 Y15.587 E21.79997
G1 X-9.725 Y15.464 E21.83622
G1 X-10.704 Y15.158 E21.88739
G1 X-16.919 Y12.67 E22.22138
G1 X-17.521 Y12.445 E22.25344
G1 X-18.17 Y12.117 E22.28972
G1 X-18.778 Y11.72 E22.32595
G1 X-19.276 Y11.317 E22.35791
G1 X-22.742 Y8.215 E22.58997
G1 X-23.427 Y7.502 E22.6393
G1 X-23.963 Y6.791 E22.68372
G1 X-24.327 Y6.163 E22.71993
G1 X-24.699 Y5.28 E22.76774
G1 X-25.883 Y1.771 E22.9525
G1 X-26.077 Y1.071 E22.98874
G1 X-26.193 Y0.354 E23.02498
G1 X-26.229 Y-.371 E23.06119
G1 X-26.185 Y-1.096 E23.09743
G1 X-26.062 Y-1.812 E23.13367
G1 X-25.908 Y-2.373 E23.1627
G1 X-24.725 Y-6.024 E23.35417
G1 X-24.463 Y-6.702 E23.39043
G1 X-24.129 Y-7.347 E23.42667
G1 X-23.725 Y-7.951 E23.46292
G1 X-23.258 Y-8.507 E23.49915
G1 X-19.407 Y-12.06 E23.76055
G1 X-18.845 Y-12.52 E23.79679
G1 X-18.236 Y-12.916 E23.83303
G1 X-17.402 Y-13.32 E23.87926
G1 X-10.77 Y-15.975 E24.23566
G1 X-10.082 Y-16.208 E24.2719
G1 X-9.084 Y-16.403 E24.32263
G1 X-1.021 Y-17.347 E24.72765
G1 X-.446 Y-17.389 E24.75641
G1 X-.205 Y-17.396 E24.76844
G1 X0.744 Y-17.355 E24.81583
G1 X8.889 Y-16.414 E25.22489
G1 X9.605 Y-16.291 E25.26113
G1 X10.586 Y-15.985 E25.3124
G1 X16.751 Y-13.515 E25.64374
G1 X17.441 Y-13.258 E25.68048
G1 X18.089 Y-12.93 E25.71671
G1 X18.698 Y-12.533 E25.75298
G1 X19.211 Y-12.114 E25.78602
G1 X22.651 Y-9.012 E26.01712
G1 X23.372 Y-8.25 E26.06946
G1 X23.891 Y-7.542 E26.11325
G1 X24.247 Y-6.909 E26.14948
G1 X24.579 Y-6.104 E26.19293
G1 X25.763 Y-2.597 E26.37759
G1 X25.957 Y-1.897 E26.41383
G1 X26.073 Y-1.18 E26.45007
G1 X26.11 Y-.455 E26.48629
G1 X26.067 Y0.27 E26.52252
G1 X25.944 Y0.986 E26.55877
G1 X25.789 Y1.548 E26.58785
G1 X24.606 Y5.2 E26.77937
G1 X24.344 Y5.878 E26.81563
G1 X24.01 Y6.522 E26.85183
G1 X23.607 Y7.127 E26.88809
G1 X23.139 Y7.683 E26.92435
G1 X19.288 Y11.236 E27.18576
G1 X18.726 Y11.696 E27.22199
G1 X18.117 Y12.092 E27.25823
G1 X17.281 Y12.497 E27.30458
G1 X10.649 Y15.149 E27.66092
G1 X9.96 Y15.381 E27.69719
G1 X8.965 Y15.576 E27.74778
G1 X0.902 Y16.52 E28.15279
G0 F3600 X0.856 Y16.123
G1 F1800 X0.281 Y16.163 E28.18155
G1 X-.831 Y16.13 E28.23705
G1 X-8.963 Y15.19 E28.64546
G1 X-9.657 Y15.07 E28.6806
G1 X-10.555 Y14.787 E28.72757
G1 X-16.764 Y12.301 E29.06125
G1 X-17.381 Y12.07 E29.09411
G1 X-18.007 Y11.749 E29.12921
G1 X-18.594 Y11.359 E29.16437
G1 X-19.009 Y11.019 E29.19114
G1 X-22.475 Y7.917 E29.4232
G1 X-23.118 Y7.248 E29.46949
G1 X-23.64 Y6.553 E29.51286
G1 X-23.99 Y5.943 E29.54794
G1 X-24.32 Y5.152 E29.5907
G1 X-25.504 Y1.643 E29.77546
G1 X-25.69 Y0.964 E29.81059
G1 X-25.799 Y0.269 E29.84568
G1 X-25.828 Y-.434 E29.88079
G1 X-25.777 Y-1.137 E29.91595
G1 X-25.647 Y-1.829 E29.95108
G1 X-24.344 Y-5.901 E30.16438
G1 X-24.089 Y-6.557 E30.19949
G1 X-23.762 Y-7.181 E30.23464
G1 X-23.366 Y-7.763 E30.26976
G1 X-22.907 Y-8.296 E30.30485
G1 X-19.137 Y-11.765 E30.56045
G1 X-18.591 Y-12.21 E30.59559
G1 X-17.999 Y-12.591 E30.63071
G1 X-17.253 Y-12.949 E30.672
G1 X-10.621 Y-15.604 E31.0284
G1 X-9.954 Y-15.828 E31.0635
G1 X-9.038 Y-16.006 E31.11005
G1 X-.975 Y-16.95 E31.51507
G1 X-.434 Y-16.989 E31.54213
G1 X-.193 Y-16.996 E31.55416
G1 X0.699 Y-16.958 E31.5987
G1 X8.844 Y-16.017 E32.00776
G1 X9.537 Y-15.897 E32.04285
G1 X10.438 Y-15.613 E32.08998
G1 X16.614 Y-13.139 E32.4219
G1 X17.3 Y-12.882 E32.45845
G1 X17.927 Y-12.561 E32.49359
G1 X18.513 Y-12.171 E32.52871
G1 X18.943 Y-11.817 E32.5565
G1 X22.383 Y-8.715 E32.78759
G1 X23.06 Y-7.999 E32.83675
G1 X23.565 Y-7.309 E32.87941
G1 X23.907 Y-6.693 E32.91456
G1 X24.2 Y-5.976 E32.95321
G1 X25.384 Y-2.469 E33.13787
G1 X25.571 Y-1.791 E33.17296
G1 X25.68 Y-1.095 E33.20811
G1 X25.709 Y-.392 E33.24321
G1 X25.659 Y0.311 E33.27837
G1 X25.529 Y1.002 E33.31345
G1 X24.225 Y5.077 E33.52691
G1 X23.971 Y5.733 E33.562
G1 X23.643 Y6.356 E33.59713
G1 X23.247 Y6.938 E33.63225
G1 X22.788 Y7.472 E33.66738
G1 X19.018 Y10.941 E33.92298
G1 X18.472 Y11.386 E33.95812
G1 X17.88 Y11.767 E33.99324
G1 X17.132 Y12.126 E34.03463
G1 X10.5 Y14.778 E34.39098
G1 X9.833 Y15.002 E34.42608
G1 X8.919 Y15.179 E34.47253
G1 X0.856 Y16.123 E34.87754
G0 F3600 X0.809 Y15.726
G1 F1800 X0.272 Y15.763 E34.9044
G1 X-.785 Y15.733 E34.95715
G1 X-8.917 Y14.793 E35.36556
G1 X-9.588 Y14.675 E35.39955
G1 X-10.407 Y14.416 E35.44241
G1 X-16.623 Y11.927 E35.77646
G1 X-17.239 Y11.695 E35.8093
G1 X-17.844 Y11.381 E35.84331
G1 X-18.407 Y10.999 E35.87725
G1 X-22.208 Y7.619 E36.13101
G1 X-22.81 Y6.993 E36.17434
G1 X-23.317 Y6.316 E36.21654
G1 X-23.653 Y5.724 E36.2505
G1 X-23.941 Y5.024 E36.28826
G1 X-25.125 Y1.515 E36.47303
G1 X-25.304 Y0.859 E36.50695
G1 X-25.405 Y0.185 E36.54095
G1 X-25.427 Y-.495 E36.5749
G1 X-25.369 Y-1.174 E36.60889
G1 X-25.147 Y-2.127 E36.65771
G1 X-23.964 Y-5.778 E36.84918
G1 X-23.716 Y-6.412 E36.88315
G1 X-23.396 Y-7.013 E36.91712
G1 X-23.008 Y-7.572 E36.95107
G1 X-22.363 Y-8.267 E36.99837
G1 X-18.866 Y-11.47 E37.23496
G1 X-18.338 Y-11.9 E37.26893
G1 X-17.763 Y-12.264 E37.30288
G1 X-17.105 Y-12.578 E37.33926
G1 X-10.473 Y-15.233 E37.69566
G1 X-9.827 Y-15.448 E37.72963
G1 X-8.991 Y-15.609 E37.7721
G1 X-.928 Y-16.553 E38.17711
G1 X-.422 Y-16.59 E38.20242
G1 X-.181 Y-16.597 E38.21445
G1 X0.653 Y-16.561 E38.2561
G1 X8.798 Y-15.62 E38.66516
G1 X9.468 Y-15.502 E38.6991
G1 X10.289 Y-15.242 E38.74206
G1 X16.475 Y-12.764 E39.07453
G1 X17.159 Y-12.508 E39.11096
G1 X17.763 Y-12.194 E39.14493
G1 X18.326 Y-11.811 E39.1789
G1 X22.115 Y-8.418 E39.43265
G1 X22.749 Y-7.748 E39.47867
G1 X23.239 Y-7.076 E39.52016
G1 X23.566 Y-6.479 E39.55412
G1 X23.821 Y-5.848 E39.58807
G1 X25.005 Y-2.341 E39.77274
G1 X25.185 Y-1.684 E39.80672
G1 X25.286 Y-1.011 E39.84068
G1 X25.308 Y-.331 E39.87462
G1 X25.25 Y0.348 E39.90862
G1 X25.028 Y1.301 E39.95744
G1 X23.845 Y4.953 E40.14896
G1 X23.597 Y5.588 E40.18297
G1 X23.277 Y6.189 E40.21694
G1 X22.889 Y6.748 E40.25089
G1 X22.244 Y7.443 E40.29819
G1 X18.747 Y10.646 E40.53478
G1 X18.219 Y11.076 E40.56875
G1 X17.644 Y11.44 E40.6027
G1 X16.984 Y11.754 E40.63917
G1 X10.352 Y14.406 E40.99551
G1 X9.706 Y14.622 E41.02949
G1 X8.872 Y14.782 E41.07186
G1 X0.809 Y15.726 E41.47687
G0 F3600 X0.763 Y15.328
G1 F1800 X0.263 Y15.363 E41.50188
G1 X-.739 Y15.335 E41.55189
G1 X-8.871 Y14.395 E41.9603
G1 X-9.518 Y14.28 E41.99308
G1 X-10.258 Y14.044 E42.03183
G1 X-16.459 Y11.562 E42.36506
G1 X-17.097 Y11.32 E42.39911
G1 X-17.679 Y11.014 E42.43191
G1 X-18.218 Y10.639 E42.46467
G1 X-21.941 Y7.321 E42.71347
G1 X-22.502 Y6.738 E42.75384
G1 X-22.994 Y6.08 E42.79483
G1 X-23.314 Y5.506 E42.82761
G1 X-23.562 Y4.896 E42.86047
G1 X-24.746 Y1.387 E43.04523
G1 X-24.917 Y0.753 E43.07799
G1 X-25.011 Y0.103 E43.11075
G1 X-25.025 Y-.554 E43.14354
G1 X-24.959 Y-1.207 E43.17628
G1 X-24.766 Y-2.004 E43.2172
G1 X-23.583 Y-5.655 E43.40867
G1 X-23.343 Y-6.266 E43.44142
G1 X-23.03 Y-6.844 E43.47421
G1 X-22.65 Y-7.379 E43.50695
G1 X-22.093 Y-7.972 E43.54754
G1 X-18.596 Y-11.175 E43.78413
G1 X-18.086 Y-11.589 E43.8169
G1 X-17.529 Y-11.937 E43.84967
G1 X-16.956 Y-12.206 E43.88125
G1 X-10.324 Y-14.861 E44.23765
G1 X-9.7 Y-15.068 E44.27045
G1 X-8.945 Y-15.211 E44.30878
G1 X-.882 Y-16.155 E44.7138
G1 X-.17 Y-16.197 E44.74938
G1 X0.607 Y-16.163 E44.78818
G1 X8.752 Y-15.222 E45.19724
G1 X9.399 Y-15.107 E45.23002
G1 X10.14 Y-14.871 E45.26882
G1 X16.345 Y-12.385 E45.60231
G1 X17.017 Y-12.133 E45.63812
G1 X17.598 Y-11.826 E45.6709
G1 X18.137 Y-11.451 E45.70366
G1 X21.847 Y-8.121 E45.95238
G1 X22.437 Y-7.497 E45.99522
G1 X22.912 Y-6.844 E46.03551
G1 X23.225 Y-6.266 E46.0683
G1 X23.442 Y-5.72 E46.09761
G1 X24.626 Y-2.213 E46.28228
G1 X24.798 Y-1.579 E46.31505
G1 X24.892 Y-.929 E46.34782
G1 X24.906 Y-.272 E46.38061
G1 X24.84 Y0.381 E46.41335
G1 X24.647 Y1.178 E46.45426
G1 X23.464 Y4.83 E46.64578
G1 X23.224 Y5.442 E46.67858
G1 X22.912 Y6.019 E46.7113
G1 X22.531 Y6.555 E46.74411
G1 X21.974 Y7.148 E46.7847
G1 X18.477 Y10.351 E47.02129
G1 X17.967 Y10.765 E47.05406
G1 X17.41 Y11.113 E47.08683
G1 X16.835 Y11.383 E47.11852
G1 X10.203 Y14.035 E47.47487
G1 X9.579 Y14.241 E47.50765
G1 X8.826 Y14.384 E47.54589
G1 X0.763 Y15.328 E47.9509
G0 F3600 X0.716 Y14.931
G1 F1800 X-0.001 Y14.97 E47.98672
G1 X-.693 Y14.938 E48.02129
G1 X-8.825 Y13.998 E48.42969
G1 X-9.447 Y13.886 E48.46122
G1 X-10.109 Y13.673 E48.49592
G1 X-16.328 Y11.183 E48.83013
G1 X-16.954 Y10.946 E48.86353
G1 X-17.511 Y10.647 E48.89507
G1 X-18.208 Y10.125 E48.93851
G1 X-21.674 Y7.023 E49.17057
G1 X-22.194 Y6.483 E49.20797
G1 X-22.67 Y5.844 E49.24772
G1 X-22.973 Y5.29 E49.27923
G1 X-23.183 Y4.769 E49.30725
G1 X-24.367 Y1.26 E49.49201
G1 X-24.53 Y0.649 E49.52356
G1 X-24.616 Y0.023 E49.55509
G1 X-24.622 Y-.609 E49.58662
G1 X-24.548 Y-1.237 E49.61817
G1 X-24.386 Y-1.88 E49.65125
G1 X-23.203 Y-5.531 E49.84272
G1 X-22.97 Y-6.119 E49.87428
G1 X-22.665 Y-6.673 E49.90583
G1 X-22.293 Y-7.184 E49.93736
G1 X-21.823 Y-7.677 E49.97134
G1 X-18.326 Y-10.88 E50.20793
G1 X-17.834 Y-11.277 E50.23947
G1 X-17.296 Y-11.608 E50.27099
G1 X-16.807 Y-11.835 E50.29788
G1 X-10.175 Y-14.49 E50.65428
G1 X-9.575 Y-14.687 E50.68579
G1 X-8.898 Y-14.814 E50.72015
G1 X-.835 Y-15.758 E51.12517
G1 X-.158 Y-15.797 E51.159
G1 X0.561 Y-15.766 E51.1949
G1 X8.706 Y-14.825 E51.60396
G1 X9.328 Y-14.713 E51.63549
G1 X9.991 Y-14.499 E51.67025
