;START_OF_HEADER
;HEADER_VERSION:0.1
;FLAVOR:Griffin
;GENERATOR.NAME:Cura_SteamEngine
;GENERATOR.VERSION:4.10.0
;GENERATOR.BUILD_DATE:2021-06-29
;TARGET_MACHINE.NAME:Ultimaker S5
;EXTRUDER_TRAIN.0.INITIAL_TEMPERATURE:200
;EXTRUDER_TRAIN.0.MATERIAL.VOLUME_USED:4653
;EXTRUDER_TRAIN.0.MATERIAL.GUID:506c9f0d-e3aa-4bd4-b2d2-23e2425b1aa9
;EXTRUDER_TRAIN.0.NOZZLE.DIAMETER:0.4
;EXTRUDER_TRAIN.0.NOZZLE.NAME:AA 0.4
;BUILD_PLATE.TYPE:glass
;BUILD_PLATE.INITIAL_TEMPERATURE:60
;BUILD_VOLUME.TEMPERATURE:28
;PRINT.TIME:4482
;PRINT.GROUPS:1
;PRINT.SIZE.MIN.X:146.403
;PRINT.SIZE.MIN.Y:111.716
;PRINT.SIZE.MIN.Z:0.2
;PRINT.SIZE.MAX.X:183.597
;PRINT.SIZE.MAX.Y:127.473
;PRINT.SIZE.MAX.Z:99.5
;END_OF_HEADER
;Generated with Cura_SteamEngine 4.10.0
T0
M82 ;absolute extrusion mode

G92 E0
M109 S200
G280 S1
G0 Z20.001
G1 F1500 E-6.5
;LAYER_COUNT:663
;LAYER:0
M107
M204 S625
M205 X10 Y10
G1 F600 Z2.2
G0 F1285.7 X179.479 Y122.847 Z2.2
M204 S500
M205 X5 Y5
;TYPE:SKIRT
G1 F600 Z0.2
G1 F1500 E0
G1 F600 X179.032 Y123.442 E0.0098
G1 X178.524 Y123.986 E0.0196
G1 X177.961 Y124.473 E0.0294
G1 X177.349 Y124.896 E0.0392
G1 X176.408 Y125.382 E0.05314
G1 X175.715 Y125.652 E0.06294
G1 X174.996 Y125.846 E0.07274
G1 X174.261 Y125.962 E0.08254
G1 X173.517 Y125.998 E0.09235
G1 X172.774 Y125.954 E0.10215
G1 X172.04 Y125.831 E0.11195
G1 X171.324 Y125.63 E0.12174
G1 X170.633 Y125.353 E0.13154
G1 X169.566 Y124.742 E0.14773
G1 X168.966 Y124.301 E0.15754
G1 X168.417 Y123.799 E0.16733
G1 X167.925 Y123.241 E0.17713
G1 X167.495 Y122.633 E0.18693
G1 X167.133 Y121.982 E0.19674
G1 X166.843 Y121.297 E0.20654
G1 X166.628 Y120.584 E0.21634
G1 X166.491 Y119.853 E0.22614
G1 X166.439 Y118.6 E0.24265
G1 X166.526 Y117.658 E0.25511
G1 X166.682 Y116.93 E0.26491
G1 X166.915 Y116.223 E0.27471
G1 X167.222 Y115.545 E0.28451
G1 X167.6 Y114.904 E0.29431
G1 X168.045 Y114.307 E0.30411
G1 X168.551 Y113.762 E0.31391
G1 X169.113 Y113.274 E0.32371
G1 X170.15 Y112.605 E0.33996
G1 X171.026 Y112.19 E0.35272
G1 X171.732 Y111.954 E0.36252
G1 X172.46 Y111.796 E0.37233
G1 X173.2 Y111.716 E0.38213
G1 X173.944 Y111.716 E0.39193
G1 X174.684 Y111.796 E0.40173
G1 X175.411 Y111.955 E0.41153
G1 X176.117 Y112.191 E0.42133
G1 X176.794 Y112.501 E0.43113
G1 X177.801 Y113.142 E0.44685
G1 X178.381 Y113.608 E0.45665
G1 X178.908 Y114.134 E0.46645
G1 X179.375 Y114.714 E0.47626
G1 X179.778 Y115.34 E0.48606
G1 X180.111 Y116.005 E0.49585
G1 X180.371 Y116.703 E0.50566
G1 X180.554 Y117.424 E0.51546
G1 X180.659 Y118.161 E0.52526
G1 X180.685 Y118.905 E0.53506
G1 X180.561 Y120.096 E0.55083
G1 X180.404 Y120.824 E0.56063
G1 X180.169 Y121.53 E0.57043
G1 X179.859 Y122.207 E0.58024
G1 X179.479 Y122.847 E0.59004
M204 S625
M205 X10 Y10
G0 F1285.7 X179.08 Y122.687
M204 S500
M205 X5 Y5
G1 F600 X178.638 Y123.257 E0.59953
G1 X178.136 Y123.775 E0.60903
G1 X177.58 Y124.234 E0.61853
G1 X176.403 Y124.923 E0.63648
G1 X175.562 Y125.26 E0.64841
G1 X174.865 Y125.444 E0.65791
G1 X174.152 Y125.55 E0.6674
G1 X173.431 Y125.577 E0.6769
G1 X172.711 Y125.523 E0.68641
G1 X172.002 Y125.391 E0.6959
G1 X171.312 Y125.181 E0.7054
G1 X170.65 Y124.895 E0.71489
G1 X169.796 Y124.39 E0.72796
G1 X169.215 Y123.962 E0.73746
G1 X168.685 Y123.473 E0.74695
G1 X168.213 Y122.928 E0.75645
G1 X167.804 Y122.334 E0.76594
G1 X167.463 Y121.698 E0.77545
G1 X167.194 Y121.028 E0.78495
G1 X167.001 Y120.333 E0.79445
G1 X166.886 Y119.621 E0.80395
G1 X166.869 Y118.419 E0.81978
G1 X166.944 Y117.702 E0.82927
G1 X167.099 Y116.997 E0.83877
G1 X167.33 Y116.314 E0.84827
G1 X167.636 Y115.66 E0.85777
G1 X168.012 Y115.045 E0.86727
G1 X168.454 Y114.475 E0.87676
G1 X168.956 Y113.957 E0.88626
G1 X169.513 Y113.498 E0.89577
G1 X170.545 Y112.872 E0.91166
G1 X171.201 Y112.573 E0.92115
G1 X171.887 Y112.348 E0.93066
G1 X172.593 Y112.2 E0.94016
G1 X173.311 Y112.131 E0.94965
G1 X174.032 Y112.142 E0.95915
G1 X174.748 Y112.233 E0.96865
G1 X175.449 Y112.403 E0.97815
G1 X176.127 Y112.649 E0.98765
G1 X176.774 Y112.968 E0.99715
G1 X177.556 Y113.483 E1.00948
G1 X178.118 Y113.936 E1.01898
G1 X178.626 Y114.448 E1.02848
G1 X179.074 Y115.014 E1.03798
G1 X179.457 Y115.625 E1.04748
G1 X179.769 Y116.275 E1.05697
G1 X180.008 Y116.956 E1.06647
G1 X180.171 Y117.659 E1.07598
G1 X180.254 Y118.375 E1.08547
G1 X180.258 Y119.097 E1.09497
G1 X180.147 Y120.03 E1.10735
G1 X179.993 Y120.734 E1.11684
G1 X179.761 Y121.418 E1.12635
G1 X179.456 Y122.071 E1.13584
G1 X179.08 Y122.687 E1.14534
M204 S625
M205 X10 Y10
G0 F1285.7 X178.682 Y122.523
M204 S500
M205 X5 Y5
G1 F600 X178.245 Y123.068 E1.15454
G1 X177.749 Y123.559 E1.16373
G1 X177.2 Y123.989 E1.17291
G1 X176.062 Y124.617 E1.19002
G1 X175.411 Y124.867 E1.19921
G1 X174.735 Y125.042 E1.2084
G1 X174.044 Y125.138 E1.21759
G1 X173.347 Y125.155 E1.22677
G1 X172.652 Y125.091 E1.23596
G1 X171.969 Y124.949 E1.24514
G1 X171.307 Y124.729 E1.25433
G1 X170.217 Y124.164 E1.27049
G1 X169.465 Y123.624 E1.28268
G1 X168.955 Y123.148 E1.29187
G1 X168.503 Y122.616 E1.30106
G1 X168.115 Y122.036 E1.31025
G1 X167.796 Y121.416 E1.31943
G1 X167.549 Y120.763 E1.32862
G1 X167.379 Y120.087 E1.3378
G1 X167.288 Y119.395 E1.34699
G1 X167.288 Y118.44 E1.35957
G1 X167.363 Y117.746 E1.36876
G1 X167.516 Y117.065 E1.37795
G1 X167.746 Y116.407 E1.38713
G1 X168.05 Y115.779 E1.39631
G1 X168.424 Y115.19 E1.4055
G1 X168.862 Y114.647 E1.41469
G1 X169.36 Y114.158 E1.42388
G1 X169.911 Y113.73 E1.43306
G1 X170.74 Y113.244 E1.44572
G1 X171.375 Y112.956 E1.4549
G1 X172.04 Y112.742 E1.4641
G1 X172.724 Y112.605 E1.47328
G1 X173.419 Y112.548 E1.48247
G1 X174.117 Y112.57 E1.49166
G1 X174.807 Y112.673 E1.50085
G1 X175.481 Y112.853 E1.51003
G1 X176.13 Y113.11 E1.51922
G1 X177.126 Y113.691 E1.53441
G1 X177.853 Y114.263 E1.54659
G1 X178.342 Y114.761 E1.55578
G1 X178.77 Y115.312 E1.56496
G1 X179.132 Y115.908 E1.57415
G1 X179.424 Y116.542 E1.58334
G1 X179.642 Y117.205 E1.59253
G1 X179.782 Y117.889 E1.60172
G1 X179.843 Y118.584 E1.61091
G1 X179.768 Y119.74 E1.62616
G1 X179.582 Y120.644 E1.63831
G1 X179.354 Y121.303 E1.64749
G1 X179.053 Y121.933 E1.65669
G1 X178.682 Y122.523 E1.66587
M204 S625
M205 X10 Y10
G0 F1285.7 X178.284 Y122.356
M204 S500
M205 X5 Y5
G1 F600 X177.853 Y122.874 E1.67474
G1 X177.364 Y123.336 E1.6836
G1 X176.823 Y123.737 E1.69246
G1 X175.889 Y124.234 E1.70639
G1 X175.26 Y124.475 E1.71526
G1 X174.607 Y124.639 E1.72413
G1 X173.94 Y124.725 E1.73298
G1 X173.267 Y124.731 E1.74185
G1 X172.597 Y124.657 E1.75072
G1 X171.942 Y124.505 E1.75958
G1 X171.309 Y124.275 E1.76844
G1 X170.256 Y123.687 E1.78433
G1 X169.716 Y123.286 E1.79318
G1 X169.227 Y122.823 E1.80205
G1 X168.796 Y122.306 E1.81091
G1 X168.43 Y121.741 E1.81978
G1 X168.133 Y121.137 E1.82864
G1 X167.909 Y120.502 E1.8375
G1 X167.763 Y119.845 E1.84637
G1 X167.698 Y118.663 E1.86195
G1 X167.781 Y117.791 E1.87349
G1 X167.933 Y117.136 E1.88234
G1 X168.162 Y116.502 E1.89122
G1 X168.464 Y115.901 E1.90007
G1 X168.835 Y115.339 E1.90894
G1 X169.27 Y114.826 E1.9178
G1 X169.763 Y114.367 E1.92667
G1 X170.735 Y113.721 E1.94203
G1 X171.549 Y113.339 E1.95387
G1 X172.191 Y113.136 E1.96274
G1 X172.853 Y113.012 E1.97161
G1 X173.524 Y112.966 E1.98047
G1 X174.197 Y113.001 E1.98934
G1 X174.86 Y113.114 E1.99819
G1 X175.505 Y113.306 E2.00706
G1 X176.123 Y113.573 E2.01592
G1 X177.066 Y114.165 E2.03058
G1 X177.588 Y114.59 E2.03944
G1 X178.056 Y115.074 E2.04831
G1 X178.464 Y115.609 E2.05717
G1 X178.805 Y116.19 E2.06604
G1 X179.075 Y116.806 E2.0749
G1 X179.271 Y117.451 E2.08377
G1 X179.388 Y118.113 E2.09262
G1 X179.426 Y118.786 E2.1015
G1 X179.318 Y119.896 E2.11618
G1 X179.171 Y120.553 E2.12505
G1 X178.948 Y121.188 E2.13391
G1 X178.65 Y121.792 E2.14278
G1 X178.284 Y122.356 E2.15163
M204 S625
M205 X10 Y10
G0 F1285.7 X178.249 Y121.648
M204 S500
M205 X5 Y5
G1 F600 X177.887 Y122.186 E2.16017
G1 X177.462 Y122.674 E2.16869
G1 X176.98 Y123.107 E2.17722
G1 X176.448 Y123.477 E2.18576
G1 X175.716 Y123.851 E2.19658
G1 X175.11 Y124.081 E2.20511
G1 X174.481 Y124.235 E2.21364
G1 X173.838 Y124.31 E2.22217
G1 X173.19 Y124.306 E2.2307
G1 X172.548 Y124.221 E2.23923
G1 X171.921 Y124.058 E2.24776
G1 X171.319 Y123.819 E2.25628
G1 X170.486 Y123.336 E2.26896
G1 X169.967 Y122.948 E2.2775
G1 X169.5 Y122.5 E2.28602
G1 X169.091 Y121.997 E2.29455
G1 X168.747 Y121.448 E2.30308
G1 X168.474 Y120.861 E2.31161
G1 X168.275 Y120.245 E2.32013
G1 X168.153 Y119.608 E2.32867
G1 X168.127 Y118.481 E2.34352
G1 X168.199 Y117.838 E2.35204
G1 X168.35 Y117.208 E2.36057
G1 X168.577 Y116.601 E2.3691
G1 X168.877 Y116.027 E2.37763
G1 X169.245 Y115.494 E2.38616
G1 X169.677 Y115.011 E2.39469
G1 X170.164 Y114.584 E2.40322
G1 X171.131 Y113.988 E2.41817
G1 X171.722 Y113.723 E2.4267
G1 X172.341 Y113.532 E2.43523
G1 X172.979 Y113.42 E2.44376
G1 X173.626 Y113.386 E2.45229
G1 X174.272 Y113.433 E2.46082
G1 X174.907 Y113.559 E2.46935
G1 X175.522 Y113.762 E2.47787
G1 X176.108 Y114.039 E2.48641
G1 X176.821 Y114.506 E2.49763
G1 X177.322 Y114.916 E2.50615
G1 X177.77 Y115.385 E2.5147
G1 X178.156 Y115.905 E2.52322
G1 X178.475 Y116.468 E2.53174
G1 X178.722 Y117.067 E2.54027
G1 X178.894 Y117.691 E2.5488
G1 X178.988 Y118.332 E2.55733
G1 X179.002 Y118.98 E2.56586
G1 X178.903 Y119.829 E2.57712
G1 X178.76 Y120.461 E2.58565
G1 X178.541 Y121.07 E2.59417
G1 X178.249 Y121.648 E2.6027
M204 S625
M205 X10 Y10
G0 F1285.7 X177.847 Y121.501
M204 S500
M205 X5 Y5
G1 F600 X177.491 Y122.01 E2.61088
G1 X177.072 Y122.469 E2.61906
G1 X176.598 Y122.871 E2.62724
G1 X175.711 Y123.393 E2.6408
G1 X174.961 Y123.688 E2.65141
G1 X174.357 Y123.83 E2.65958
G1 X173.739 Y123.894 E2.66776
G1 X173.118 Y123.878 E2.67594
G1 X172.504 Y123.783 E2.68412
G1 X171.907 Y123.609 E2.69231
G1 X170.907 Y123.109 E2.70703
G1 X170.219 Y122.611 E2.71821
G1 X169.774 Y122.178 E2.72639
G1 X169.389 Y121.691 E2.73456
G1 X169.069 Y121.158 E2.74275
G1 X168.82 Y120.589 E2.75093
G1 X168.646 Y119.992 E2.75911
G1 X168.551 Y119.378 E2.7673
G1 X168.547 Y118.502 E2.77883
G1 X168.617 Y117.885 E2.78701
G1 X168.767 Y117.282 E2.79519
G1 X168.992 Y116.703 E2.80337
G1 X169.29 Y116.158 E2.81155
G1 X169.655 Y115.655 E2.81973
G1 X170.082 Y115.204 E2.82791
G1 X170.563 Y114.811 E2.83609
G1 X171.326 Y114.36 E2.84776
G1 X171.893 Y114.107 E2.85593
G1 X172.489 Y113.929 E2.86412
G1 X173.102 Y113.829 E2.8723
G1 X173.723 Y113.808 E2.88048
G1 X174.341 Y113.868 E2.88866
G1 X174.947 Y114.006 E2.89684
G1 X175.53 Y114.221 E2.90502
G1 X176.39 Y114.714 E2.91808
G1 X177.055 Y115.242 E2.92926
G1 X177.481 Y115.694 E2.93744
G1 X177.845 Y116.198 E2.94562
G1 X178.141 Y116.744 E2.9538
G1 X178.365 Y117.324 E2.96199
G1 X178.512 Y117.927 E2.97016
G1 X178.581 Y118.545 E2.97835
G1 X178.524 Y119.539 E2.99146
G1 X178.35 Y120.367 E3.0026
G1 X178.135 Y120.95 E3.01078
G1 X177.847 Y121.501 E3.01897
M204 S625
M205 X10 Y10
G0 F1285.7 X177.447 Y121.35
M204 S500
M205 X5 Y5
G1 F600 X177.096 Y121.829 E3.02679
G1 X176.684 Y122.257 E3.03461
G1 X176.219 Y122.626 E3.04242
G1 X175.37 Y123.086 E3.05514
G1 X174.814 Y123.294 E3.06296
G1 X174.235 Y123.425 E3.07077
G1 X173.643 Y123.477 E3.0786
G1 X173.05 Y123.449 E3.08641
G1 X172.466 Y123.342 E3.09423
G1 X171.902 Y123.158 E3.10204
G1 X170.946 Y122.633 E3.11641
G1 X170.472 Y122.275 E3.12423
G1 X170.051 Y121.857 E3.13204
G1 X169.69 Y121.386 E3.13985
G1 X169.395 Y120.871 E3.14767
G1 X169.172 Y120.321 E3.15548
G1 X169.025 Y119.746 E3.1633
G1 X168.956 Y118.725 E3.17677
G1 X169.036 Y117.933 E3.18725
G1 X169.183 Y117.358 E3.19507
G1 X169.407 Y116.809 E3.20288
G1 X169.702 Y116.294 E3.21069
G1 X170.064 Y115.823 E3.21851
G1 X170.486 Y115.405 E3.22633
G1 X171.321 Y114.836 E3.23964
G1 X172.064 Y114.491 E3.25042
G1 X172.634 Y114.327 E3.25823
G1 X173.222 Y114.24 E3.26606
G1 X173.815 Y114.233 E3.27387
G1 X174.404 Y114.305 E3.28168
G1 X174.978 Y114.457 E3.2895
G1 X175.527 Y114.684 E3.29732
G1 X176.33 Y115.188 E3.30981
G1 X176.788 Y115.566 E3.31763
G1 X177.19 Y116.003 E3.32545
G1 X177.531 Y116.489 E3.33326
G1 X177.803 Y117.017 E3.34108
G1 X178.002 Y117.576 E3.3489
G1 X178.123 Y118.157 E3.35671
G1 X178.166 Y118.749 E3.36453
G1 X178.074 Y119.695 E3.37704
G1 X177.94 Y120.273 E3.38485
G1 X177.729 Y120.828 E3.39267
G1 X177.447 Y121.35 E3.40049
M204 S625
M205 X10 Y10
G0 F1285.7 X177.047 Y121.195
M204 S500
M205 X5 Y5
G1 F600 X176.702 Y121.643 E3.40793
G1 X176.298 Y122.037 E3.41536
G1 X175.843 Y122.37 E3.42279
G1 X175.197 Y122.703 E3.43236
G1 X174.667 Y122.899 E3.4398
G1 X174.115 Y123.018 E3.44723
G1 X173.552 Y123.058 E3.45466
G1 X172.989 Y123.018 E3.4621
G1 X172.437 Y122.899 E3.46953
G1 X171.907 Y122.703 E3.47697
G1 X171.176 Y122.282 E3.48808
G1 X170.727 Y121.94 E3.49551
G1 X170.33 Y121.538 E3.50295
G1 X169.994 Y121.084 E3.51039
G1 X169.726 Y120.587 E3.51782
G1 X169.53 Y120.058 E3.52525
G1 X169.411 Y119.506 E3.53269
G1 X169.386 Y118.544 E3.54536
G1 X169.454 Y117.983 E3.5528
G1 X169.6 Y117.438 E3.56023
G1 X169.822 Y116.919 E3.56766
G1 X170.114 Y116.436 E3.57509
G1 X170.472 Y115.999 E3.58253
G1 X170.888 Y115.617 E3.58997
G1 X171.716 Y115.103 E3.6028
G1 X172.234 Y114.877 E3.61024
G1 X172.778 Y114.726 E3.61767
G1 X173.337 Y114.653 E3.6251
G1 X173.902 Y114.66 E3.63254
G1 X174.46 Y114.746 E3.63997
G1 X175 Y114.911 E3.64741
G1 X175.9 Y115.396 E3.66087
G1 X176.519 Y115.891 E3.67131
G1 X176.898 Y116.309 E3.67873
G1 X177.213 Y116.777 E3.68616
G1 X177.46 Y117.285 E3.6936
G1 X177.632 Y117.823 E3.70104
G1 X177.727 Y118.38 E3.70848
G1 X177.695 Y119.405 E3.72198
G1 X177.53 Y120.178 E3.73239
G1 X177.324 Y120.703 E3.73982
G1 X177.047 Y121.195 E3.74725
M204 S625
M205 X10 Y10
G0 F1285.7 X176.648 Y121.035
M204 S500
M205 X5 Y5
G1 F600 X176.31 Y121.449 E3.75429
G1 X175.915 Y121.808 E3.76132
G1 X175.023 Y122.321 E3.77486
G1 X174.522 Y122.504 E3.78189
G1 X173.998 Y122.61 E3.78893
G1 X173.465 Y122.637 E3.79595
G1 X172.934 Y122.584 E3.80298
G1 X172.416 Y122.452 E3.81002
G1 X171.597 Y122.055 E3.822
G1 X170.982 Y121.605 E3.83204
G1 X170.612 Y121.22 E3.83907
G1 X170.303 Y120.785 E3.8461
G1 X170.062 Y120.308 E3.85313
G1 X169.896 Y119.801 E3.86016
G1 X169.806 Y119.274 E3.8672
G1 X169.805 Y118.564 E3.87655
G1 X169.872 Y118.035 E3.88357
G1 X170.016 Y117.52 E3.89061
G1 X170.236 Y117.034 E3.89763
G1 X170.526 Y116.585 E3.90467
G1 X170.879 Y116.185 E3.91169
G1 X171.712 Y115.58 E3.92525
G1 X172.402 Y115.263 E3.93525
G1 X172.918 Y115.126 E3.94228
G1 X173.449 Y115.068 E3.94931
G1 X173.982 Y115.09 E3.95634
G1 X174.507 Y115.191 E3.96338
G1 X175.01 Y115.369 E3.9704
G1 X175.84 Y115.87 E3.98317
G1 X176.249 Y116.214 E3.9902
G1 X176.602 Y116.614 E3.99723
G1 X176.892 Y117.063 E4.00427
G1 X177.111 Y117.55 E4.0113
G1 X177.256 Y118.064 E4.01833
G1 X177.322 Y118.594 E4.02536
G1 X177.244 Y119.561 E4.03814
G1 X177.12 Y120.08 E4.04516
G1 X176.92 Y120.575 E4.05219
G1 X176.648 Y121.035 E4.05923
M204 S625
M205 X10 Y10
G0 F1285.7 X176.25 Y120.869
M204 S500
M205 X5 Y5
G1 F600 X175.92 Y121.247 E4.06584
G1 X175.534 Y121.567 E4.07244
G1 X174.85 Y121.938 E4.08269
G1 X174.378 Y122.108 E4.08929
G1 X173.885 Y122.2 E4.09589
G1 X173.384 Y122.214 E4.10249
G1 X172.887 Y122.147 E4.1091
G1 X172.406 Y122.002 E4.11571
G1 X171.636 Y121.579 E4.12728
G1 X171.24 Y121.272 E4.13388
G1 X170.897 Y120.905 E4.14049
G1 X170.617 Y120.489 E4.1471
G1 X170.406 Y120.034 E4.1537
G1 X170.27 Y119.551 E4.16031
G1 X170.225 Y118.585 E4.17304
G1 X170.289 Y118.088 E4.17964
G1 X170.432 Y117.607 E4.18625
G1 X170.649 Y117.155 E4.19285
G1 X170.936 Y116.743 E4.19946
G1 X171.284 Y116.382 E4.20606
G1 X172.107 Y115.847 E4.21899
G1 X172.568 Y115.65 E4.22559
G1 X173.055 Y115.529 E4.2322
G1 X173.555 Y115.486 E4.2388
G1 X174.055 Y115.523 E4.24541
G1 X174.543 Y115.64 E4.25201
G1 X175.41 Y116.078 E4.2648
G1 X175.977 Y116.536 E4.2744
G1 X176.304 Y116.917 E4.28101
G1 X176.565 Y117.344 E4.2876
G1 X176.756 Y117.808 E4.29421
G1 X176.87 Y118.297 E4.30082
G1 X176.906 Y118.797 E4.30742
G1 X176.83 Y119.494 E4.31665
G1 X176.711 Y119.981 E4.32325
G1 X176.516 Y120.443 E4.32986
G1 X176.25 Y120.869 E4.33647
M204 S625
M205 X10 Y10
G0 F1285.7 X175.853 Y120.695
M204 S500
M205 X5 Y5
G1 F600 X175.532 Y121.034 E4.34262
G1 X174.845 Y121.479 E4.3534
G1 X174.237 Y121.711 E4.36196
G1 X173.777 Y121.789 E4.36811
G1 X173.31 Y121.787 E4.37426
G1 X172.85 Y121.706 E4.38041
G1 X172.057 Y121.352 E4.39184
G1 X171.499 Y120.939 E4.40098
G1 X171.186 Y120.593 E4.40713
